X: 1
T: String Quartet in G major opus 1 no 4 mvt 2
C: Franz Joseph Haydn
%%abc-version 2.0
%%abcx-abcm2ps-target-version 5.9.1 (29 Sep 2008)
%%abc-creator hum2abc beta
%%abcx-conversion-date 2021/02/14 14:38:35
%%abc-copyright Copyright (c) 1994, 2000 Center for Computer Assisted Research in the Humanities
%%abc-edited-by Frances Bennion
%%abcx-initial-encoding-date 1997/04/15
%%gracespace 0 6 6
%%humdrum-veritas 2699690266
%%humdrum-veritas-data 2078180917
%%linebreak <none>
%%barnumbers 0
L: 1/8
M: 3/4
N: Derived from op01n4-02.krn
Q: "Menuetto I"
%%staves [1 2 3 4]
V: 1
V: 2
V: 3 clef=alto
V: 4 clef=bass
K: G
[V:1]g4 (3agf [I:setbarnb2] |
[V:2]B4 (3cBA |
[V:3]G,2 B,2 D2 |
[V:4]G,,2 B,,2 D,2 |
[V:1]g2 d2 ^d2 |
[V:2]B6 |
[V:3]G2 z4 |
[V:4]G,2 z4 |
[V:1]e4 (3gfe |
[V:2]c4 (3edc |
[V:3]G2 G2 G2 |
[V:4]G,2 G,2 G,2 |
[V:1]d2 z4 |
[V:2]B2 z4 |
[V:3]GG, B,D G2 |
[V:4]G,G,, B,,D, G,2 |
[V:1](3cdc a2 z2 |
[V:2](3ABA c2 z2 |
[V:3]z2 d2 D2 |
[V:4]z2 D2 D,2 |
[V:1](3BcB d2 z2 |
[V:2](3GAG B2 z2 |
[V:3]z2 G2 G,2 |
[V:4]z2 G,2 G,,2 |
[V:1]A2 G2 F2 |
[V:2]C2 B,2 A,2 |
[V:3]C2 D2 D2 |
[V:4]C,2 D,2 D,2 |
[V:1]G2 z4 |
[V:2]G,2 z4 |
[V:3]G2 D2 G,2 |
[V:4]G,2 D,2 G,,2 |
[V:1]b4 (3d'^c'b |
[V:2]D6- |
[V:3]G2 G2 G2 |
[V:4]G,2 G,2 G,2 |
[V:1]a2 f'2 a2 |
[V:2]D4 A,2 |
[V:3]F2 F2 F2 |
[V:4]F,2 F,2 F,2 |
[V:1]a2 g2 gf |
[V:2]B,2 ^C2 D2 |
[V:3]E4 D2 |
[V:4]E,4 D,2 |
[V:1]e4 z2 |
[V:2]^C4 z2 |
[V:3]A2 E2 A,2 |
[V:4]A,2 E,2 A,,2 |
[V:1]a6- |
[V:2](3ABA d2 z2 |
[V:3]z2 z2 (3AGF |
[V:4]F,4 D,2 |
[V:1]a6- |
[V:2](3^cde G2 z2 |
[V:3]E2 z2 (3GFE |
[V:4]A,2 ^C2 A,2 |
[V:1]a6- |
[V:2](3FGF d2 z2 |
[V:3]D2 z2 (3AGF |
[V:4]D2 F,2 D,2 |
[V:1]a6 |
[V:2](3^cde G2 z2 |
[V:3]E2 z2 (3GFE |
[V:4]A,2 ^C2 A,2 |
[V:1]a2 F2 E2 |
[V:2](3FGA D2 ^C2 |
[V:3]D2 A2 A,2 |
[V:4]D2 A,2 A,,2 |
[V:1]D4 z2 |
[V:2]D4 z2 |
[V:3]D2 d2 c2 |
[V:4]D,2 D2 C2 |
[V:1]g4 (3ag=f |
[V:2]g4 (3ag=f |
[V:3]B2 G2 B2 |
[V:4]B,2 G,2 B,2 |
[V:1]=f2 ed cB |
[V:2]=f2 ed cB |
[V:3]c2 C2 z2 |
[V:4]C2 C,2 z2 |
[V:1]AB cd ^de |
[V:2]AB cd ^de |
[V:3]c2 AB c^c |
[V:4]C2 A,B, C^C |
[V:1]F4 z2 |
[V:2]F4 z2 |
[V:3]d2 A2 D2 |
[V:4]D2 A,2 D,2 |
[V:1]g4 (3agf |
[V:2]B4 (3cBA |
[V:3]G,2 B,2 D2 |
[V:4]G,,2 B,,2 D,2 |
[V:1]g2 d2 ^d2 |
[V:2]B6 |
[V:3]G2 z4 |
[V:4]G,2 z4 |
[V:1]e4 (3gfe |
[V:2]c4 (3edc |
[V:3]G2 G2 G2 |
[V:4]G,2 G,2 G,2 |
[V:1]d2 z4 |
[V:2]B2 z4 |
[V:3]GG, B,D G2 |
[V:4]G,G,, B,,D, G,2 |
[V:1](3cdc a2 z2 |
[V:2](3ABA c2 z2 |
[V:3]z2 d2 D2 |
[V:4]z2 D2 D,2 |
[V:1](3BcB d2 z2 |
[V:2](3GAG B2 z2 |
[V:3]z2 G2 G,2 |
[V:4]z2 G,2 G,,2 |
[V:1]A2 G2 F2 |
[V:2]C2 B,2 A,2 |
[V:3]C2 D2 D2 |
[V:4]C,2 D,2 D,2 |
[V:1]G6 |
[V:2]G,4 z2 |
[V:3]G2 D2 G,2 |
[V:4]G,2 D,2 G,,2 |
[V:1]z6 |
[V:2]GF GA _Bc |
[V:3]GF GA _Bc |
[V:4]G,F, G,A, _B,C |
[V:1]z2 [a2c2D2] [f2A2D2] |
[V:2]d2 z4 |
[V:3]d2 z4 |
[V:4]D2 z4 |
[V:1][D2g2_B2] z4 |
[V:2]GF GA _Bc |
[V:3]GF GA _Bc |
[V:4]G,F, G,A, _B,C |
[V:1]z2 [c2D2a2] [A2f2D2] |
[V:2]d2 z4 |
[V:3]d2 z4 |
[V:4]D2 z4 |
[V:1][g2_B2D2] z4 |
[V:2]GF GA _Bc |
[V:3]GF GA _Bc |
[V:4]G,F, G,A, _B,C |
[V:1]z6 |
[V:2]d2 D2 z2 |
[V:3]d2 D2 z2 |
[V:4]D2 D,2 z2 |
[V:1]_b6 |
[V:2]z6 |
[V:3]z6 |
[V:4]_B,,A,, B,,C, D,_E, |
[V:1]a4 c'_e |
[V:2]Ac _ec Ac |
[V:3]=FA cA FA |
[V:4]=F,2 z4 |
[V:1]d2 _b4 |
[V:2]_B2 z4 |
[V:3]_B2 z4 |
[V:4]_B,,A,, B,,C, D,_E, |
[V:1]a4 c'_e |
[V:2]Ac _ec Ac |
[V:3]=FA cA FA |
[V:4]=F,2 z4 |
[V:1]dD _Ec =FA |
[V:2]_B2 _E2 =F2 |
[V:3]_B2 _E2 =F2 |
[V:4]_B,2 _E,2 =F,2 |
[V:1]_B,2 z4 |
[V:2]_B,2 z4 |
[V:3]_B,2 DC B,A, |
[V:4]_B,,2 D,C, B,,A,, |
[V:1]_b6 |
[V:2]d6 |
[V:3]_B,A, B,C D_E |
[V:4]_B,,A,, B,,C, D,_E, |
[V:1]_b2 a4 |
[V:2]c6 |
[V:3]=FE FG A^F |
[V:4]=F,E, F,G, A,^F, |
[V:1]a2 g4 |
[V:2]_B6 |
[V:3]GF GA _Bc |
[V:4]G,F, G,A, _B,C |
[V:1]g2 f2 z2 |
[V:2]_B2 A2 z2 |
[V:3]d2 D2 z2 |
[V:4]D2 D,2 z2 |
[V:1]z6 |
[V:2]GF GA _Bc |
[V:3]GF GA _Bc |
[V:4]G,F, G,A, _B,C |
[V:1]z2 [a2c2D2] [A2f2D2] |
[V:2]d2 z4 |
[V:3]d2 z4 |
[V:4]D2 z4 |
[V:1][g2D2_B2] z4 |
[V:2]GF GA _Bc |
[V:3]GF GA _Bc |
[V:4]G,F, G,A, _B,C |
[V:1]z2 [a2c2D2] [D2A2f2] |
[V:2]d2 z4 |
[V:3]d2 z4 |
[V:4]D2 z4 |
[V:1][D2_B2g2] z4 |
[V:2]GF GA _Bc |
[V:3]GF GA _Bc |
[V:4]G,F, G,A, _B,C |
[V:1]z6 |
[V:2]d2 D2 z2 |
[V:3]d2 D2 z2 |
[V:4]D2 D,2 z2 |
[V:1]f6 |
[V:2]_e2 dc _BA |
[V:3]c2 _BA GA |
[V:4]C6 |
[V:1]gd d4 |
[V:2]Gd c_B AB |
[V:3]_BB AG FG |
[V:4]_B,2 z4 |
[V:1]f6 |
[V:2]_e2 dc _BA |
[V:3]c2 _BA GA |
[V:4]C6 |
[V:1]gd d4 |
[V:2]Gd c_B AB |
[V:3]_BB AG FG |
[V:4]_B,2 z4 |
[V:1]_ec _BG DF |
[V:2]G2 G2 F2 |
[V:3]c2 d2 D2 |
[V:4]C2 D2 D,2 |
[V:1]G,2 z4 |]
[V:2]G2 z4 |]
[V:3]G2 G,2 z2 |]
[V:4]G,2 G,,2 z2 |]

